symbolic/22x22/apps/crayon-physics-deluxe.svg

<svg width="22" height="22" version="1.1" xmlns="http://www.w3.org/2000/svg">
 <path d="m10.896545 1.5018022c-1.1612924 0.0400074-2.1949239 0.7472756-2.652743 1.8151542l-0.9349992 2.1801367h-3.3047049c-2.6976265 4.249e-4 -4.0227798 3.2843749-2.0808123 5.1565999l2.2467307 2.166475-1.9227018 4.487138c-1.1210363 2.612994 1.685341 5.173023 4.1850486 3.81768l4.5676369-2.474856 4.567637 2.474856c2.499708 1.355343 5.306085-1.204686 4.185048-3.81768l-1.922701-4.487138 2.246731-2.166475c1.941967-1.8722249 0.616814-5.1561749-2.080812-5.1565999h-3.304706l-0.934999-2.1801367c-0.487442-1.1369898-1.623212-1.8579162-2.859653-1.8151542z" style="opacity:.2"/>
 <path d="m10.896545 1.0018029c-1.1612924 0.0400074-2.1949239 0.7472756-2.652743 1.8151542l-0.9349992 2.1801367h-3.3047049c-2.6976265 4.249e-4 -4.0227798 3.2843749-2.0808123 5.1565992l2.2467307 2.166475-1.9227018 4.487138c-1.1210363 2.612994 1.685341 5.173023 4.1850486 3.81768l4.5676369-2.474856 4.567637 2.474856c2.499708 1.355343 5.306085-1.204686 4.185048-3.81768l-1.922701-4.487138 2.246731-2.166475c1.941967-1.8722242 0.616814-5.1561742-2.080812-5.1565992h-3.304706l-0.934999-2.1801367c-0.487442-1.1369898-1.623212-1.8579162-2.859653-1.8151542z" style="fill:#353535"/>
 <path d="m11 4.4977824-1.7138399 3.9972426h-5.2820622l3.7380448 3.604936-2.7386302 6.388172 5.9964875-3.24776 5.996488 3.24776-2.73863-6.388172 3.738045-3.604936h-5.282062z" style="opacity:.2"/>
 <path d="m11 3.9977831-1.7138399 3.9972426h-5.2820622l3.7380448 3.6049353-2.7386302 6.388172 5.9964875-3.24776 5.996488 3.24776-2.73863-6.388172 3.738045-3.6049353h-5.282062z" style="fill:#e1dc1f"/>
 <path d="m10.896484 1.0019531c-1.161292 0.0400074-2.1945243 0.7465746-2.6523434 1.8144531l-0.9355468 2.1816407h-3.3046876c-1.9036674 2.998e-4 -3.1173822 1.6352598-2.9882812 3.2558593 0.1273161-1.4406067 1.2808068-2.7555904 2.9882812-2.7558593h3.3046876l0.9355468-2.1816407c0.4578191-1.0678786 1.4910514-1.7744457 2.6523434-1.8144531 1.236441-0.0427619 2.371933 0.6774634 2.859375 1.8144531l0.935547 2.1816407h3.304688c1.707474 2.69e-4 2.860965 1.3152526 2.988281 2.7558593 0.129101-1.6205995-1.084614-3.2555594-2.988281-3.2558593h-3.304688l-0.935547-2.1816407c-0.487442-1.1369898-1.622934-1.857215-2.859375-1.8144531zm-6.8789059 11.671875-1.7695312 4.132813c-0.2117203 0.493493-0.2821151 0.985522-0.2421875 1.449218 0.0274163-0.3107 0.1051862-0.629886 0.2421875-0.949218l1.921875-4.486329-0.1523438-0.146484zm13.964844 0-0.152344 0.146484 1.921875 4.486329c0.137001 0.319332 0.214771 0.638518 0.242188 0.949218 0.039927-0.463696-0.030467-0.955725-0.242188-1.449218l-1.769531-4.132813z" style="fill:#ffffff;opacity:.1"/>
 <path d="m11 3.9980469-1.7128906 3.9960937h-5.2832032l0.5175782 0.5h4.765625l1.7128906-3.9960937 1.712891 3.9960937h4.765625l0.517578-0.5h-5.283203l-1.712891-3.9960937zm-3.4101562 7.9550781-2.5859376 6.035156 0.2792969-0.15039 2.4589844-5.738282-0.1523437-0.146484zm6.8203122 0-0.152344 0.146484 2.458985 5.738282 0.279297 0.15039-2.585938-6.035156z" style="fill:#ffffff;opacity:.2"/>
</svg>

<svg width="22" height="22" xmlns="http://www.w3.org/2000/svg"><path d="M10.897 1.502a2.999 2.999 0 0 0-2.653 1.815l-.935 2.18H4.004c-2.698 0-4.023 3.284-2.08 5.157L4.17 12.82l-1.923 4.487c-1.12 2.613 1.686 5.173 4.185 3.818L11 18.65l4.568 2.475c2.5 1.355 5.306-1.205 4.185-3.818L17.83 12.82l2.247-2.166c1.942-1.873.617-5.156-2.081-5.157H14.69l-.935-2.18a2.999 2.999 0 0 0-2.86-1.815z" style="opacity:.2"/><path d="M10.897 1.002a2.999 2.999 0 0 0-2.653 1.815l-.935 2.18H4.004c-2.698 0-4.023 3.284-2.08 5.157L4.17 12.32l-1.923 4.487c-1.12 2.613 1.686 5.173 4.185 3.818L11 18.15l4.568 2.475c2.5 1.355 5.306-1.205 4.185-3.818L17.83 12.32l2.247-2.166c1.942-1.873.617-5.156-2.081-5.157H14.69l-.935-2.18a2.999 2.999 0 0 0-2.86-1.815z" style="fill:#353535"/><path d="M11 4.498 9.286 8.495H4.004L7.742 12.1l-2.738 6.388L11 15.24l5.996 3.248-2.738-6.388 3.738-3.605h-5.282z" style="opacity:.2"/><path d="M11 3.998 9.286 7.995H4.004L7.742 11.6l-2.738 6.388L11 14.74l5.996 3.248-2.738-6.388 3.738-3.605h-5.282z" style="fill:#e1dc1f"/><path d="M10.896 1.002a2.997 2.997 0 0 0-2.652 1.814L7.31 4.998H4.004C2.1 4.998.887 6.633 1.016 8.254c.127-1.44 1.28-2.756 2.988-2.756h3.305l.935-2.182a2.997 2.997 0 0 1 5.512 0l.935 2.182h3.305c1.708 0 2.861 1.315 2.988 2.756.13-1.62-1.084-3.256-2.988-3.256h-3.305l-.935-2.182a2.998 2.998 0 0 0-2.86-1.814zM4.018 12.674l-1.77 4.133a3 3 0 0 0-.242 1.449c.027-.31.105-.63.242-.95L4.17 12.82l-.152-.146zm13.964 0-.152.146 1.922 4.487c.137.319.215.638.242.949a3 3 0 0 0-.242-1.45l-1.77-4.132z" style="fill:#fff;opacity:.1"/><path d="M11 3.998 9.287 7.994H4.004l.517.5h4.766L11 4.498l1.713 3.996h4.766l.517-.5h-5.283L11 3.998zm-3.41 7.955-2.586 6.035.28-.15L7.741 12.1l-.152-.147zm6.82 0-.152.147 2.459 5.738.28.15-2.587-6.035z" style="fill:#fff;opacity:.2"/></svg>
